X:437
T:linear temperament test
Q:1/4=100
M:3/4
L:1/4
K:G
V:1
%%MIDI temperamentlinear 1200.0 696.57843
G G G | C C C | D D D | G G G | C C C | D D D |
V:2
%%MIDI temperamentlinear 1200.0 696.57843
E E E | E E E | E E E | E E E | E E E | E E E |
V:3
%%MIDI temperamentlinear 1200.0 696.57843
A G A | A G A | A G A | A G A | A G A | A G A |
